assets/icons/primary_phone_icon.svg

<?xml version="1.0" standalone="no"?>
<svg version="1.2" xmlns="http://www.w3.org/2000/svg" xmlns:xlink="http://www.w3.org/1999/xlink" overflow="visible" preserveAspectRatio="none" viewBox="0 0 24 24" width="28" height="28"><g><path xmlns:default="http://www.w3.org/2000/svg" id="phone" d="M19.33,16.26c0.01-0.07,0.01-0.15,0-0.22c-0.21-0.25-0.48-0.44-0.79-0.55l-0.56-0.31l-0.66-0.36l-0.56-0.32  l-0.26-0.18c-0.12-0.08-0.24-0.16-0.37-0.22c-0.1-0.06-0.21-0.09-0.33-0.09c-0.2,0.03-0.39,0.14-0.52,0.3  c-0.21,0.2-0.4,0.42-0.57,0.65c-0.17,0.23-0.35,0.45-0.55,0.65c-0.12,0.16-0.29,0.26-0.48,0.3c-0.08,0-0.16-0.02-0.23-0.05  l-0.21-0.09L13,15.61l-0.2-0.12c-0.9-0.49-1.72-1.1-2.45-1.81c-0.71-0.73-1.32-1.55-1.81-2.45L8.4,11.01l-0.15-0.25  c-0.03-0.07-0.06-0.14-0.09-0.21c-0.03-0.07-0.05-0.15-0.05-0.23c0.04-0.19,0.14-0.36,0.3-0.48c0.2-0.2,0.42-0.38,0.65-0.55  C9.29,9.12,9.5,8.93,9.7,8.73C9.86,8.6,9.97,8.41,10,8.21c0-0.1-0.02-0.21-0.07-0.3C9.86,7.78,9.79,7.66,9.7,7.54L9.52,7.28  L9.2,6.73L8.83,6.07L8.52,5.5C8.42,5.2,8.24,4.92,8,4.71c-0.07-0.01-0.15-0.01-0.22,0c-0.25,0.01-0.49,0.04-0.73,0.1  C6.79,4.85,6.54,4.92,6.3,5.01c-0.49,0.3-0.87,0.74-1.1,1.26C4.86,6.86,4.68,7.53,4.67,8.21c-0.01,0.18-0.01,0.37,0,0.55  c0.03,0.2,0.07,0.4,0.13,0.6C4.89,9.58,4.95,9.74,5,9.85l0.2,0.58l0.19,0.51c0.22,0.64,0.51,1.25,0.86,1.82  c0.64,1,1.4,1.92,2.25,2.75c0.83,0.85,1.75,1.61,2.75,2.25c0.57,0.35,1.18,0.64,1.82,0.86l0.51,0.19l0.58,0.2l0.49,0.15  c0.2,0.06,0.4,0.1,0.6,0.13c0.18,0.01,0.37,0.01,0.55,0c0.68-0.01,1.35-0.19,1.94-0.53c0.52-0.22,0.95-0.58,1.26-1.05  c0.1-0.23,0.17-0.46,0.23-0.7c0.06-0.24,0.09-0.48,0.1-0.73l0,0V16.26z" style="fill: rgb(0, 56, 79);"/></g></svg>

<?xml version="1.0" encoding="UTF-8" standalone="no"?>
<svg
   xmlns:dc="http://purl.org/dc/elements/1.1/"
   xmlns:cc="http://creativecommons.org/ns#"
   xmlns:rdf="http://www.w3.org/1999/02/22-rdf-syntax-ns#"
   xmlns:svg="http://www.w3.org/2000/svg"
   xmlns="http://www.w3.org/2000/svg"
   xmlns:sodipodi="http://sodipodi.sourceforge.net/DTD/sodipodi-0.dtd"
   xmlns:inkscape="http://www.inkscape.org/namespaces/inkscape"
   version="1.2"
   overflow="visible"
   preserveAspectRatio="none"
   viewBox="0 0 24 24"
   width="20"
   height="20"
   id="svg5"
   sodipodi:docname="primary_phone_icon.svg"
   inkscape:version="1.0 (b51213c273, 2020-08-10)">
  <metadata
     id="metadata11">
    <rdf:RDF>
      <cc:Work
         rdf:about="">
        <dc:format>image/svg+xml</dc:format>
        <dc:type
           rdf:resource="http://purl.org/dc/dcmitype/StillImage" />
      </cc:Work>
    </rdf:RDF>
  </metadata>
  <defs
     id="defs9" />
  <sodipodi:namedview
     pagecolor="#ffffff"
     bordercolor="#666666"
     borderopacity="1"
     objecttolerance="10"
     gridtolerance="10"
     guidetolerance="10"
     inkscape:pageopacity="0"
     inkscape:pageshadow="2"
     inkscape:window-width="1680"
     inkscape:window-height="1026"
     id="namedview7"
     showgrid="false"
     inkscape:zoom="13.125"
     inkscape:cx="-4.223833"
     inkscape:cy="6.9535203"
     inkscape:window-x="0"
     inkscape:window-y="30"
     inkscape:window-maximized="1"
     inkscape:current-layer="svg5" />
  <g
     id="g3"
     transform="matrix(1.5712887,0,0,1.5712887,-6.8473867,-7.0533019)">
    <path
       id="phone"
       d="m 19.33,16.26 c 0.01,-0.07 0.01,-0.15 0,-0.22 -0.21,-0.25 -0.48,-0.44 -0.79,-0.55 L 17.98,15.18 17.32,14.82 16.76,14.5 16.5,14.32 c -0.12,-0.08 -0.24,-0.16 -0.37,-0.22 -0.1,-0.06 -0.21,-0.09 -0.33,-0.09 -0.2,0.03 -0.39,0.14 -0.52,0.3 -0.21,0.2 -0.4,0.42 -0.57,0.65 -0.17,0.23 -0.35,0.45 -0.55,0.65 -0.12,0.16 -0.29,0.26 -0.48,0.3 -0.08,0 -0.16,-0.02 -0.23,-0.05 L 13.24,15.77 13,15.61 12.8,15.49 C 11.9,15 11.08,14.39 10.35,13.68 9.64,12.95 9.03,12.13 8.54,11.23 L 8.4,11.01 8.25,10.76 C 8.22,10.69 8.19,10.62 8.16,10.55 8.13,10.48 8.11,10.4 8.11,10.32 8.15,10.13 8.25,9.96 8.41,9.84 8.61,9.64 8.83,9.46 9.06,9.29 9.29,9.12 9.5,8.93 9.7,8.73 9.86,8.6 9.97,8.41 10,8.21 10,8.11 9.98,8 9.93,7.91 9.86,7.78 9.79,7.66 9.7,7.54 L 9.52,7.28 9.2,6.73 8.83,6.07 8.52,5.5 C 8.42,5.2 8.24,4.92 8,4.71 7.93,4.7 7.85,4.7 7.78,4.71 7.53,4.72 7.29,4.75 7.05,4.81 6.79,4.85 6.54,4.92 6.3,5.01 5.81,5.31 5.43,5.75 5.2,6.27 4.86,6.86 4.68,7.53 4.67,8.21 4.66,8.39 4.66,8.58 4.67,8.76 4.7,8.96 4.74,9.16 4.8,9.36 4.89,9.58 4.95,9.74 5,9.85 l 0.2,0.58 0.19,0.51 c 0.22,0.64 0.51,1.25 0.86,1.82 0.64,1 1.4,1.92 2.25,2.75 0.83,0.85 1.75,1.61 2.75,2.25 0.57,0.35 1.18,0.64 1.82,0.86 l 0.51,0.19 0.58,0.2 0.49,0.15 c 0.2,0.06 0.4,0.1 0.6,0.13 0.18,0.01 0.37,0.01 0.55,0 0.68,-0.01 1.35,-0.19 1.94,-0.53 0.52,-0.22 0.95,-0.58 1.26,-1.05 0.1,-0.23 0.17,-0.46 0.23,-0.7 0.06,-0.24 0.09,-0.48 0.1,-0.73 v 0 z"
       style="fill:#00384f" />
  </g>
</svg>
